!!!OTL: BIN AUS UND EIN GANGN
!!!ARE: Europa, Mitteleuropa, Oesterreich, Tirol
!!!SCT: E1041
!!!YEM: Copyright 1995, estate of Helmut Schaffrath.
**kern
*ICvox
*Ivox
*M3/4
*k[b-]
*F:
{4c
=1
4f
8f
8g
8a
8b-
=2
4cc
4a}
{8a
8cc
=3
8cc
8b-
4g
8g
8b-
=4
2a}
{8c
8c
=5
4f
8f
8g
8a
8b-
=6
8dd
8cc
4a}
{8a
8cc
=7
8cc
8b-
4g
8g
8a
=8
2f}
{8cc
8a
=9
4g
8g
8cc
8bn
8dd
=10
8cc
8g
4g}
{8g
8cc
=11
4ee
8ee
8cc
8dd
8bn
=12
2cc}
{8a
8cc
=13
4dd
8b-
8f
8b-
8dd
=14
8dd
8cc
4a}
{8a
8cc
=15
8cc
8b-
4g
8g
8b-
=16
2a}
{4cc
=17
4dd
8dd
8b-
8ff
8dd
=18
8dd
8cc
4cc}
{8a
8cc
=19
8.cc
16b-
4a
8g
8f
=20
2f}
==
!!!AGN: Tanz - Lied
!!!ONB: ESAC (Essen Associative Code) Database: ERK3
!!!AMT: simple triple
!!!AIN: vox
!!!EED: Helmut Schaffrath
!!!EEV: 1.0
*-
